lib/brands/icons/google-lens.svg

<svg xmlns="http://www.w3.org/2000/svg" fill="none" aria-hidden="true" viewBox="0 0 48 48"><g id="google-lens-Icon"><g id="Group"><path id="Vector" fill="#FBBC05" d="M32.0014 11.0014C33.3253 11.0059 34.5937 11.5339 35.5299 12.47C36.4661 13.4062 36.994 14.6746 36.9985 15.9986V20.0014H42V15.9986C42.0005 14.6854 41.7423 13.3849 41.24 12.1716C40.7377 10.9583 40.0013 9.85582 39.0727 8.92726C38.1441 7.99869 37.0417 7.26222 35.8283 6.75995C34.615 6.25767 33.3146 5.99944 32.0014 6H27.9985V11.0014H32.0014Z"/><path id="Vector_2" fill="#EA4335" d="M11.0014 15.9986C11.0059 14.6746 11.5339 13.4062 12.47 12.47C13.4062 11.5339 14.6746 11.0059 15.9986 11.0014H20.0014V6H15.9986C14.6854 5.99944 13.3849 6.25767 12.1716 6.75995C10.9583 7.26222 9.85582 7.99869 8.92726 8.92726C7.99869 9.85582 7.26222 10.9583 6.75995 12.1716C6.25767 13.3849 5.99944 14.6854 6 15.9986V20.0014H11.0014V15.9986Z"/><path id="Vector_3" fill="#4285F4" d="M15.9986 36.9986C14.6746 36.9941 13.4062 36.4661 12.47 35.53C11.5339 34.5938 11.0059 33.3254 11.0014 32.0014V27.9986H6V32.0014C5.99944 33.3146 6.25767 34.615 6.75995 35.8284C7.26222 37.0417 7.99869 38.1442 8.92726 39.0727C9.85582 40.0013 10.9583 40.7378 12.1716 41.24C13.3849 41.7423 14.6854 42.0006 15.9986 42H20.0014V36.9986H15.9986Z"/><path id="Vector_4" fill="#34A853" d="M36 39.9985C36.7909 39.9985 37.564 39.764 38.2215 39.3246C38.8791 38.8853 39.3916 38.2608 39.6942 37.5301C39.9969 36.7995 40.0761 35.9955 39.9218 35.2199C39.7675 34.4442 39.3867 33.7317 38.8274 33.1725C38.2682 32.6133 37.5558 32.2325 36.7801 32.0782C36.0045 31.9239 35.2005 32.0031 34.4698 32.3057C33.7392 32.6084 33.1147 33.1209 32.6753 33.7785C32.236 34.436 32.0015 35.2091 32.0015 35.9999C32.0015 36.525 32.1049 37.045 32.3058 37.5301C32.5068 38.0153 32.8013 38.4561 33.1726 38.8274C33.5439 39.1987 33.9847 39.4932 34.4698 39.6941C34.955 39.8951 35.4749 39.9985 36 39.9985V39.9985Z"/><path id="Vector_5" fill="#4285F4" d="M24 30.9985C25.3842 30.9985 26.7373 30.5881 27.8882 29.8191C29.0391 29.05 29.9362 27.957 30.4659 26.6782C30.9956 25.3994 31.1342 23.9922 30.8641 22.6346C30.5941 21.277 29.9275 20.03 28.9488 19.0512C27.97 18.0725 26.723 17.4059 25.3654 17.1359C24.0078 16.8658 22.6006 17.0044 21.3218 17.5341C20.043 18.0638 18.9499 18.9609 18.1809 20.1118C17.4119 21.2627 17.0015 22.6158 17.0015 24C17.0015 25.8561 17.7388 27.6362 19.0513 28.9487C20.3638 30.2612 22.1439 30.9985 24 30.9985Z"/></g></g></svg>

<svg xmlns="http://www.w3.org/2000/svg" fill="none" aria-hidden="true" viewBox="0 0 48 48"><path fill="#FBBC05" d="M32.001 11.001A5.015 5.015 0 0 1 37 16v4h5v-4a9.995 9.995 0 0 0-9.999-10H28v5.001h4Z"/><path fill="#EA4335" d="M11.001 15.999A5.015 5.015 0 0 1 16 11h4V6h-4a9.994 9.994 0 0 0-10 9.999V20h5.001v-4Z"/><path fill="#4285F4" d="M15.999 36.999A5.015 5.015 0 0 1 11 32v-4H6v4a9.995 9.995 0 0 0 9.999 10H20v-5.001h-4Z"/><path fill="#34A853" d="M36 39.998a3.998 3.998 0 1 0 0-7.996 3.998 3.998 0 0 0 0 7.996Z"/><path fill="#4285F4" d="M24 30.998a6.999 6.999 0 1 0 0-13.997 6.999 6.999 0 0 0 0 13.997Z"/></svg>
